OFDR/img/icons/contact/mail.svg

<svg width="16" height="12" viewBox="0 0 16 12" fill="none" xmlns="http://www.w3.org/2000/svg">
<path fill-rule="evenodd" clip-rule="evenodd" d="M14.9533 0.251998L8.00002 6.33595L1.04736 0.251998C1.33154 0.0957935 1.65296 0 1.99999 0H14C14.3466 0 14.668 0.0957935 14.9533 0.251998ZM15.7433 10.962C15.9013 10.6759 16 10.3507 16 9.99994V2.00009C16 1.60851 15.8829 1.24614 15.6885 0.937655L10.6914 5.30966L15.7433 10.962ZM9.93854 5.96788L8.32904 7.37705C8.2349 7.45906 8.11767 7.50002 8.00002 7.50002C7.88229 7.50002 7.76507 7.45906 7.67092 7.37705L6.06107 5.96782L0.945304 11.6924C1.25194 11.8848 1.61131 12 1.99995 12H14C14.3886 12 14.7482 11.8848 15.0547 11.6924L9.93854 5.96788ZM0 2.00009C0 1.60847 0.117194 1.24611 0.311551 0.937622L5.30811 5.3087L0.256845 10.962C0.0982006 10.6759 0 10.3507 0 9.99998V2.00009Z" fill="#87B0EE"/>
</svg>

<svg width="16" height="12" fill="none" xmlns="http://www.w3.org/2000/svg"><path fill-rule="evenodd" clip-rule="evenodd" d="M14.953.252L8 6.336 1.047.252C1.332.096 1.653 0 2 0h12c.347 0 .668.096.953.252zm.79 10.71c.158-.286.257-.611.257-.962V2a1.98 1.98 0 00-.312-1.062L10.691 5.31l5.052 5.652zM9.94 5.968L8.33 7.377a.5.5 0 01-.658 0l-1.61-1.41-5.116 5.725c.307.193.666.308 1.055.308h12c.389 0 .748-.115 1.055-.308L9.939 5.968zM0 2c0-.392.117-.754.312-1.062l4.996 4.37-5.051 5.654A1.976 1.976 0 010 10V2z" fill="#87B0EE"/></svg>
